X:12
T:Dark Woman of The Glen, The
C:Joe Buchanan's Scottish Tome - Page 510.0
I:510 0
Z:Carl Allison
R:Air
L:1/8
M:3/4
K:G
D2 | G4 AB/c/ | d4 ed/B/ | G4 Bd | g2 a4 |
ge/g/ {f}d4 | cA B4 | A2 G4 | A2 B3 c/d/ |
(c4 c)B | A4 GF | (G6 | ((3A/G/F/ G2)) :|
GB/d/ | g4 ef/g/ | a4 ba | g4 ag/f/ | d4 c>A |
(B4 B)A | G4 Bd | g4 ef/g/ | a4 b>c' |
(b4 b)a | g4 ag/f/ | d4 cA | (B4 B)c |
A4 GF | G6- | G4 Bd | g2 a4 |
ge/g/ {f}d4 | cA B4 | A2 G4 | A2 B3 c/d/ |
c4- cB | A4 GF | (G6 | ((3A/G/F/ G2)) :|
